ES1T1/14/aimg/barco.svg

<svg clip-rule="evenodd" fill-rule="evenodd" stroke-linejoin="round" stroke-miterlimit="2" viewBox="0 0 98 64" xmlns="http://www.w3.org/2000/svg" xmlns:xlink="http://www.w3.org/1999/xlink"><image height="12" transform="matrix(.956167 0 0 .981266 36.9138 1.83889)" width="18" xlink:href="data:image/png;base64,iVBORw0KGgoAAAANSUhEUgAAABIAAAAMCAYAAABvEu28AAAACXBIWXMAAA7EAAAOxAGVKw4bAAAA9UlEQVQokZWSX0sCURDFf64khA+x+Cd6LNak9JNcLvfDDsN8lNJAkkTBR8GQCNQHLxq2667ndYbfnDmcGiUStRTIgFXw7qNoLymBtIAhsABSUXu4GiRqd8ArMAnezYERkIlaszJI1BoRMg3eLQCCdytgDgxErV4KErUa8AIsg3ezs/EU2ALPVRw9Ajvg83wQvNtyeLEjat1CkKi1gS7wHrzb5RwheLeOzjJRu/kHErVboB8hv3mQP5oBGw61OIFELQEGwFcM9aKi2xHQjhU5OuoBPznhXoJtgAnQE7V6Imr3QBovXKVYjW/gKQFawFuFXIo0BtZ7NjlYH+/jgw0AAAAASUVORK5CYII="/><g fill-rule="nonzero"><path d="m37.673 12.721-.792-.646c.319-.39.928-1.24 1.7-2.317 4.121-5.75 6.434-8.691 7.637-8.808.242-.023.465.049.631.206 1.162 1.093 5.703 7.977 7.243 10.715l-.89.501c-1.535-2.73-5.819-9.176-6.964-10.384-1.136.424-5.107 5.964-6.827 8.365-.782 1.091-1.4 1.953-1.738 2.368" fill="#af96a0"/><path d="m47.925 1.782c0 .929-.752 1.681-1.681 1.681-.928 0-1.68-.752-1.68-1.681 0-.928.752-1.681 1.68-1.681.929 0 1.681.753 1.681 1.681" fill="#808285"/><path d="m47.701.945c.083.199.128.417.128.646 0 .928-.752 1.68-1.68 1.68-.623 0-1.166-.34-1.456-.844.253.609.852 1.036 1.552 1.036.928 0 1.681-.752 1.681-1.681 0-.305-.083-.59-.225-.837" fill="#58595b"/></g><image height="46" transform="matrix(.996073 0 0 .988587 2.1047 18.3699)" width="96" xlink:href="data:image/png;base64,iVBORw0KGgoAAAANSUhEUgAAAGAAAAAuCAYAAADXyhwkAAAACXBIWXMAAA7EAAAOxAGVKw4bAAAAg0lEQVR4nO3RQQ3AIADAQMAYngmZPmTcYz0FTTrP/fYIs3TA3zUAawDWAKwBWAOwBmANwBqANQBrANYArAFYA7AGYA3AGoA1AGsA1gCsAVgDsAZgDcAagDUAawDWAKwBWAOwBmANwBqANQBrANYArAFYA7AGYA3AGoA1AGsA1gCsAdgDq9UCt/b9fggAAAAASUVORK5CYII="/><path d="m.104 10.419h94.61v50.218h-94.61z" fill="#e7ced8"/><path d="m10.022 19.312h74.782v32.502h-74.782z" fill="#fff"/><g fill-rule="nonzero"><path d="m90.613 15.023h-.001l-6.125 5.439h.037v28.457h-.075l6.164 5.411z" fill="#ecd3dc"/><path d="m14.27 20.462h.001l-6.052-5.439h-.038v39.297l6.089-5.57z" fill="#c4aeba"/><path d="m84.449 48.919h-70.18v-.169l-6.089 5.57v.039h82.433v-.03z" fill="#f8dee8"/><path d="m84.486 20.462 6.125-5.439h-82.393l6.052 5.439z" fill="#d1bbc4"/><g fill="#231f20"><path d="m.068 0h.1v-.094c.035.065.107.11.2.11.156 0 .28-.115.28-.29 0-.181-.135-.286-.276-.286-.07.001-.15.032-.2.103v-.283h-.104zm.476-.272c-.001.094-.067.191-.191.191-.111 0-.185-.088-.185-.192 0-.103.076-.19.188-.19.107 0 .188.084.188.19z" transform="matrix(20 0 0 20 19.542 40.126)"/><path d="m.622-.544h-.104v.096c-.025-.052-.094-.112-.202-.112-.158 0-.279.122-.279.288 0 .152.104.288.279.288.086 0 .164-.038.202-.111v.095h.104zm-.481.273c0-.102.074-.192.188-.192.087 0 .148.049.174.112.012.025.017.053.016.081s-.007.056-.019.081c-.027.062-.086.108-.169.108-.132 0-.189-.108-.19-.189z" transform="matrix(20 0 0 20 33.222 40.126)"/><path d="m.068 0h.104v-.294c0-.108.051-.162.149-.162h.007v-.104c-.074.001-.131.032-.162.096v-.08h-.098z" transform="matrix(20 0 0 20 47.042 40.126)"/><path d="m.497-.191c-.022.054-.079.109-.17.11-.104 0-.186-.079-.186-.191 0-.055.021-.106.053-.138.038-.036.078-.054.133-.053.074 0 .142.041.17.114h.107c-.034-.131-.151-.211-.281-.211-.163 0-.286.127-.286.288 0 .151.113.288.291.288.136 0 .243-.089.276-.207z" transform="matrix(20 0 0 20 53.102 40.126)"/><path d="m.037-.272c0 .146.107.287.29.287s.29-.141.29-.287-.107-.288-.29-.288-.29.142-.29.287zm.104 0c0-.109.082-.19.186-.19s.186.081.186.19-.082.19-.186.19-.186-.081-.186-.189z" transform="matrix(20 0 0 20 65.842 40.126)"/></g></g></svg>

<?xml version="1.0" encoding="UTF-8" standalone="no"?>
<!DOCTYPE svg PUBLIC "-//W3C//DTD SVG 1.1//EN" "http://www.w3.org/Graphics/SVG/1.1/DTD/svg11.dtd">
<svg width="100%" height="100%" viewBox="0 0 98 64" version="1.1" xmlns="http://www.w3.org/2000/svg" xmlns:xlink="http://www.w3.org/1999/xlink" xml:space="preserve" xmlns:serif="http://www.serif.com/" style="fill-rule:evenodd;clip-rule:evenodd;stroke-linejoin:round;stroke-miterlimit:2;">
    <g>
        <g id="_Image1_" serif:id="_Image1" transform="matrix(0.956167,0,0,0.981266,36.9138,1.83889)">
            <use id="_Image1_1" serif:id="_Image1" xlink:href="#_Image1" x="0" y="0" width="18px" height="12px"/>
        </g>
        <path d="M37.673,12.721L36.881,12.075C37.2,11.685 37.809,10.835 38.581,9.758C42.702,4.008 45.015,1.067 46.218,0.95C46.46,0.927 46.683,0.999 46.849,1.156C48.011,2.249 52.552,9.133 54.092,11.871L53.202,12.372C51.667,9.642 47.383,3.196 46.238,1.988C45.102,2.412 41.131,7.952 39.411,10.353C38.629,11.444 38.011,12.306 37.673,12.721" style="fill:rgb(175,150,160);fill-rule:nonzero;"/>
        <path d="M47.925,1.782C47.925,2.711 47.173,3.463 46.244,3.463C45.316,3.463 44.564,2.711 44.564,1.782C44.564,0.854 45.316,0.101 46.244,0.101C47.173,0.101 47.925,0.854 47.925,1.782" style="fill:rgb(128,130,133);fill-rule:nonzero;"/>
        <path d="M47.701,0.945C47.784,1.144 47.829,1.362 47.829,1.591C47.829,2.519 47.077,3.271 46.149,3.271C45.526,3.271 44.983,2.931 44.693,2.427C44.946,3.036 45.545,3.463 46.245,3.463C47.173,3.463 47.926,2.711 47.926,1.782C47.926,1.477 47.843,1.192 47.701,0.945" style="fill:rgb(88,89,91);fill-rule:nonzero;"/>
        <g id="_Image2_" serif:id="_Image2" transform="matrix(0.996073,0,0,0.988587,2.1047,18.3699)">
            <use id="_Image2_1" serif:id="_Image2" xlink:href="#_Image2" x="0" y="0" width="96px" height="46px"/>
        </g>
        <rect x="0.104" y="10.419" width="94.61" height="50.218" style="fill:rgb(231,206,216);"/>
        <rect class="fondo" x="10.022" y="19.312" width="74.782" height="32.502" style="fill:white;"/>
        <path d="M90.613,15.023L90.612,15.023L84.487,20.462L84.524,20.462L84.524,48.919L84.449,48.919L90.613,54.33L90.613,15.023Z" style="fill:rgb(236,211,220);fill-rule:nonzero;"/>
        <path d="M14.27,20.462L14.271,20.462L8.219,15.023L8.181,15.023L8.181,54.32L14.27,48.75L14.27,20.462Z" style="fill:rgb(196,174,186);fill-rule:nonzero;"/>
        <path d="M84.449,48.919L14.269,48.919L14.269,48.75L8.18,54.32L8.18,54.359L90.613,54.359L90.613,54.329L84.449,48.919Z" style="fill:rgb(248,222,232);fill-rule:nonzero;"/>
        <path d="M84.486,20.462L90.611,15.023L8.218,15.023L14.27,20.462L84.486,20.462Z" style="fill:rgb(209,187,196);fill-rule:nonzero;"/>
        <g>
            <g transform="matrix(1,0,0,1,19.542,40.126)">
                <g transform="matrix(20,0,0,20,0,0)">
                    <path d="M0.068,0L0.168,0L0.168,-0.094C0.203,-0.029 0.275,0.016 0.368,0.016C0.524,0.016 0.648,-0.099 0.648,-0.274C0.648,-0.455 0.513,-0.56 0.372,-0.56C0.302,-0.559 0.222,-0.528 0.172,-0.457L0.172,-0.74L0.068,-0.74L0.068,0ZM0.544,-0.272C0.543,-0.178 0.477,-0.081 0.353,-0.081C0.242,-0.081 0.168,-0.169 0.168,-0.273C0.168,-0.376 0.244,-0.463 0.356,-0.463C0.463,-0.463 0.544,-0.379 0.544,-0.273L0.544,-0.272Z" style="fill:rgb(35,31,32);fill-rule:nonzero;"/>
                </g>
                <g transform="matrix(20,0,0,20,13.68,0)">
                    <path d="M0.622,-0.544L0.518,-0.544L0.518,-0.448C0.493,-0.5 0.424,-0.56 0.316,-0.56C0.158,-0.56 0.037,-0.438 0.037,-0.272C0.037,-0.12 0.141,0.016 0.316,0.016C0.402,0.016 0.48,-0.022 0.518,-0.095L0.518,0L0.622,0L0.622,-0.544ZM0.141,-0.271C0.141,-0.373 0.215,-0.463 0.329,-0.463C0.416,-0.463 0.477,-0.414 0.503,-0.351C0.515,-0.326 0.52,-0.298 0.519,-0.27C0.518,-0.242 0.512,-0.214 0.5,-0.189C0.473,-0.127 0.414,-0.081 0.331,-0.081C0.199,-0.081 0.142,-0.189 0.141,-0.27L0.141,-0.271Z" style="fill:rgb(35,31,32);fill-rule:nonzero;"/>
                </g>
                <g transform="matrix(20,0,0,20,27.5,0)">
                    <path d="M0.068,0L0.172,0L0.172,-0.294C0.172,-0.402 0.223,-0.456 0.321,-0.456L0.328,-0.456L0.328,-0.56C0.254,-0.559 0.197,-0.528 0.166,-0.464L0.166,-0.544L0.068,-0.544L0.068,0Z" style="fill:rgb(35,31,32);fill-rule:nonzero;"/>
                </g>
            </g>
            <g transform="matrix(1,0,0,1,53.102,40.126)">
                <g transform="matrix(20,0,0,20,0,0)">
                    <path d="M0.497,-0.191C0.475,-0.137 0.418,-0.082 0.327,-0.081C0.223,-0.081 0.141,-0.16 0.141,-0.272C0.141,-0.327 0.162,-0.378 0.194,-0.41C0.232,-0.446 0.272,-0.464 0.327,-0.463C0.401,-0.463 0.469,-0.422 0.497,-0.349L0.604,-0.349C0.57,-0.48 0.453,-0.56 0.323,-0.56C0.16,-0.56 0.037,-0.433 0.037,-0.272C0.037,-0.121 0.15,0.016 0.328,0.016C0.464,0.016 0.571,-0.073 0.604,-0.191L0.497,-0.191Z" style="fill:rgb(35,31,32);fill-rule:nonzero;"/>
                </g>
                <g transform="matrix(20,0,0,20,12.74,0)">
                    <path d="M0.037,-0.272C0.037,-0.126 0.144,0.015 0.327,0.015C0.51,0.015 0.617,-0.126 0.617,-0.272C0.617,-0.418 0.51,-0.56 0.327,-0.56C0.144,-0.56 0.037,-0.418 0.037,-0.273L0.037,-0.272ZM0.141,-0.272C0.141,-0.381 0.223,-0.462 0.327,-0.462C0.431,-0.462 0.513,-0.381 0.513,-0.272C0.513,-0.163 0.431,-0.082 0.327,-0.082C0.223,-0.082 0.141,-0.163 0.141,-0.271L0.141,-0.272Z" style="fill:rgb(35,31,32);fill-rule:nonzero;"/>
                </g>
            </g>
        </g>
    </g>
    <defs>
        <image id="_Image1" width="18px" height="12px" xlink:href="data:image/png;base64,iVBORw0KGgoAAAANSUhEUgAAABIAAAAMCAYAAABvEu28AAAACXBIWXMAAA7EAAAOxAGVKw4bAAAA9UlEQVQokZWSX0sCURDFf64khA+x+Cd6LNak9JNcLvfDDsN8lNJAkkTBR8GQCNQHLxq2667ndYbfnDmcGiUStRTIgFXw7qNoLymBtIAhsABSUXu4GiRqd8ArMAnezYERkIlaszJI1BoRMg3eLQCCdytgDgxErV4KErUa8AIsg3ezs/EU2ALPVRw9Ajvg83wQvNtyeLEjat1CkKi1gS7wHrzb5RwheLeOzjJRu/kHErVboB8hv3mQP5oBGw61OIFELQEGwFcM9aKi2xHQjhU5OuoBPznhXoJtgAnQE7V6Imr3QBovXKVYjW/gKQFawFuFXIo0BtZ7NjlYH+/jgw0AAAAASUVORK5CYII="/>
        <image id="_Image2" width="96px" height="46px" xlink:href="data:image/png;base64,iVBORw0KGgoAAAANSUhEUgAAAGAAAAAuCAYAAADXyhwkAAAACXBIWXMAAA7EAAAOxAGVKw4bAAAAg0lEQVR4nO3RQQ3AIADAQMAYngmZPmTcYz0FTTrP/fYIs3TA3zUAawDWAKwBWAOwBmANwBqANQBrANYArAFYA7AGYA3AGoA1AGsA1gCsAVgDsAZgDcAagDUAawDWAKwBWAOwBmANwBqANQBrANYArAFYA7AGYA3AGoA1AGsA1gCsAdgDq9UCt/b9fggAAAAASUVORK5CYII="/>
    </defs>
</svg>
